X:1
T:Tolland
T:A minor                    Merit Woodruff, 1800
T:Transcribed from Devotional Harmony, 1800.
T:Isaac Watts, 1719 (Psalm 39, Part 2)                      86. 86. (C. M.)
%%score [ 1 2 3 4 ]
L:1/8
Q:1/4=120
M:4/4
K:C
V:1 treble nm="Tr." snm="Tr."
V:2 treble nm="C." snm="C."
V:3 treble-8 nm="T." snm="T."
V:4 bass nm="B." snm="B."
V:1
"_1. Teach me the measure of my days, Thou Ma – ker   of    my   frame;    I  would  survey life's narrow space, And  learn  how  frail   I   am.            A     span            is         all      that   we  can  boast,  An" A8 | %1
 G2 G2 G2 E2 | G2 G2 c2 B2 | B2 cd e2 f2 | e6 c2 | B2 G2 A2 Bc | d2 d2 e3 d | c2 A2 G2 B2 | A8 | %9
[M:3/2] z8 c4 | B8 e4 | (d2 c2) (B2 A2) e2 f2 | e8 e4 | %13
"_1.  inch           or             two               of    time;  Man  is         but     va      –     ni  –  ty          and       dust  In   all          his     flower         and    prime,  In     all             his        flower          and     prime." (c3 d e4) (d2 B2) | %14
 (c3 B A4) ^G4 | A8 c4 | e8 c4 | (B3 c d4) G4 | c8 c4 | B8 e4 | (A3 B c4) d4 | (e3 d c4) B4 | %22
 A8 (e2 c2) | B8 c4 | e8 E4 | A12 |] %26
V:2
"_2. See the vain race of mortals move  Like  sha–dows   o'er   the  plain;  They rage and strive, desire and love, But   all   the   noise   is   vain.         Some  walk          in         ho  –  nor's  gau–dy show, Some" E8 | %1
 E2 E2 E2 G2 | G2 G2 E2 G2 | G2 E2 E2 A2 | G6 E2 | G2 G2 A2 A2 | G2 G2 G3 F | E2 A2 E2 E2 | E8 | %9
[M:3/2] z8 E4 | G8 G4 | (G2 E2) (E2 F2) G2 F2 | G8 G4 | %13
"_2.  dig           for             gol        –      den   ore;  They  toil        for   heirs,       they   know       not     who, And  straight   are   seen            no    more,  And    straight      are       seen             no       more." A8 B4 | %14
 (G3 F E4) E4 | E8 A4 | A8 G4 | G8 G4 | E8 (E2 F2) | E8 C4 | A8 G4 | (G4 E4) G4 | A8 G4 | G8 A4 | %24
 G8 G4 | E12 |] %26
V:3
"_3. What should I wish or wait for then, From creatures  earth  and  dust?  They  make  our  expectations  vain,  And  dis–ap–point  our  trust.           Now  I               for   –  bid       my    car – nal hope, My" A8 | %1
 e2 c2 B2 cA | B2 G2 A2 e2 | de c2 B2 c2 | B6 c2 | d2 ed c2 dc | B2 B2 c3 A | e2 cA BA G2 | A8 | %9
[M:3/2] z8 A4 | (e4 d3 e) (c2 d2) | (B2 e2) (G2 E2) c2 BA | B8 e4 | %13
"_3. fond         de      –     sires               re – call;  I     give          my   mor     –    tal     in     –     terest   up,  And  make      my   God             my       all,   And     make         my        God             my       all." (A3 B c4) (3(d2 c2 d2) | %14
 (e3 d c4) B4 | A8 e4 | (c3 d c4) e4 | (d3 c B4) c4 | (3(G4 A4 G4) A4 | E8 G4 | (c3 B A4) B4 | %21
 (c2 e4 c2) d4 | e8 (e2 d2) | (d3 c B4) (e2 c2) | (B3 A G4) (c2 B2) | A12 |] %26
V:4
 A,,8 | C,2 C,2 E,2 C,2 | G,2 E,2 A,2 E,2 | G,2 A,2 E,D, C,D, | E,6 A,2 | G,2 E,2 F,2 D,2 | %6
 G,2 G,,2 C,3 D, | E,2 F,2 E,2 E,2 | A,,8 |[M:3/2] z8 A,4 | (E,3 F, G,4) C,4 | %11
 (G,2 A,2) (E,2 D,2) C,2 D,2 | E,8 C4 | %13
"________________________________________\nEdited by B. C. Johnston, 2018\n   1. Measure 12, Counter: last note changed from F# to F, like Treble." A,8 G,4 | %14
 (C,3 D, E,4) E,4 | A,,8 A,4 | A,8 C4 | G,8 E,4 | C,8 A,,4 | E,8 E,4 | C,8 G,4 | %21
 (E,4 A,4) (G,2 B,2) | A,8 (E,2 G,2) | G,8 C,2 E,2 | E,8 E,4 | A,,12 |] %26

